X:1
T:Worship (Stewart), CMD
T:Robert Prescott Stewart, 1889
T:Worship (Stewart), CMD
T:Public Domain
C:Robert Prescott Stewart, 1889
Z:Public Domain
%%score ( 1 2 ) ( 3 4 )
L:1/8
M:4/4
K:Eb
V:1 treble 
V:2 treble 
V:3 bass 
V:4 bass 
V:1
 [EG]2 [EF]E [EA]2 [EG]2 | [Ec]3 [Ec] [EB]2 [EB]2 | [Ge]2 [Gd]2 [Gc]2 [GB]2 | [FA]6 [=EG]2 | %4
 F2 [=EG]2 [FA]2 [Gc]2 | [FB]3 [FA] [EG]2 [Ge]2 | [Fd]2 [Gc]2 [FB]2 [E=A]2 | [DB]6 [DF]2 | %8
 [FA]3 [FA] [EG]2 [EG]2 | [Ac]3 [Ac] [GB]2 [EB]2 | [Ec]2 [Ec]2 (cd) [Fe]2 | (e4 d2) [Dc]2 | %12
 [EB]2 [Ee]2 [EF]2 [Ec]2 | [DB]3 [DA] [EG]2 [EG]2 | [FB]2 [FA]2 [DG]2 [DF]2 | E8 |] %16
V:2
 x3 E x4 | x8 | x8 | x8 | F2 x6 | x8 | x8 | x8 | x8 | x8 | x4 F2 x2 | F6 x2 | x8 | x8 | x8 | E8 |] %16
V:3
 [E,B,]2 [E,A,][E,G,] [E,C]2 [E,B,]2 | [A,,A,]3 [C,A,] [E,G,]2 [G,B,]2 | %2
 [C,C]2 [D,=B,]2 [E,C]2 [=E,C]2 | [F,C]6 [G,B,]2 | [A,C]2 [G,B,]2 [F,A,]2 [E,G,]2 | %5
 [D,B,]3 [D,B,] [E,B,]2 [C,=A,]2 | [D,B,]2 [E,E]2 [F,D]2 [F,C]2 | [B,,B,]6 B,2 | %8
 [D,B,]3 [D,B,] [E,B,]2 [E,B,]2 | [E,C]3 [E,D] [E,E]2 [G,_D]2 | [A,C]2 [A,C]2 (ED) [A,C]2 | %11
 B,6 [A,B,]2 | [G,B,]2 [C,G,]2 [A,,C]2 [A,,A,]2 | [B,,F,]3 [B,,B,] [E,B,]2 [C,C]2 | %14
 [A,,C]2 [A,,C]2 [B,,B,]2 [B,,A,]2 | [E,G,]8 |] %16
V:4
 x8 | x8 | x8 | x8 | x8 | x8 | x8 | x6 B,2 | x8 | x8 | x4 F,2 x2 | B,6 x2 | x8 | x8 | x8 | x8 |] %16

